static/img/kroki/8f4d1e5991218c8cf2564148d0d19f3b.svg

<?xml version="1.0" encoding="us-ascii" standalone="no"?><svg xmlns="http://www.w3.org/2000/svg" xmlns:xlink="http://www.w3.org/1999/xlink" contentStyleType="text/css" height="374px" preserveAspectRatio="none" style="width:375px;height:374px;" version="1.1" viewBox="0 0 375 374" width="375px" zoomAndPan="magnify"><defs/><g><!--class digitalocean_resource--><g id="elem_digitalocean_resource"><rect codeLine="23" fill="#3D176E" height="39.7891" id="digitalocean_resource" rx="2.5" ry="2.5" style="stroke:#000D19;stroke-width:0.5;" width="223" x="7" y="167.79"/><ellipse cx="22" cy="187.6845" fill="#ADD1B2" rx="11" ry="11" style="stroke:#181818;stroke-width:1.0;"/><path d="M24.9688,193.3252 Q24.3906,193.622 23.75,193.7627 Q23.1094,193.9189 22.4063,193.9189 Q19.9063,193.9189 18.5781,192.2783 Q17.2656,190.622 17.2656,187.497 Q17.2656,184.372 18.5781,182.7158 Q19.9063,181.0595 22.4063,181.0595 Q23.1094,181.0595 23.75,181.2158 Q24.4063,181.372 24.9688,181.6689 L24.9688,184.3877 Q24.3438,183.8095 23.75,183.5439 Q23.1563,183.2627 22.5313,183.2627 Q21.1875,183.2627 20.5,184.3408 Q19.8125,185.4033 19.8125,187.497 Q19.8125,189.5908 20.5,190.6689 Q21.1875,191.7314 22.5313,191.7314 Q23.1563,191.7314 23.75,191.4658 Q24.3438,191.1845 24.9688,190.6064 L24.9688,193.3252 Z " fill="#000000"/><text fill="#D9B8FF" font-family="Helvetica" font-size="17" lengthAdjust="spacing" textLength="181" x="41" y="193.5698">digitalocean_resource</text></g><!--class digitalocean_ssh_key--><g id="elem_digitalocean_ssh_key"><rect codeLine="26" fill="#3D176E" height="39.7891" id="digitalocean_ssh_key" rx="2.5" ry="2.5" style="stroke:#000D19;stroke-width:0.5;" width="218" x="107.5" y="328.58"/><ellipse cx="122.5" cy="348.4745" fill="#ADD1B2" rx="11" ry="11" style="stroke:#181818;stroke-width:1.0;"/><path d="M125.4688,354.1152 Q124.8906,354.412 124.25,354.5527 Q123.6094,354.7089 122.9063,354.7089 Q120.4063,354.7089 119.0781,353.0683 Q117.7656,351.412 117.7656,348.287 Q117.7656,345.162 119.0781,343.5058 Q120.4063,341.8495 122.9063,341.8495 Q123.6094,341.8495 124.25,342.0058 Q124.9063,342.162 125.4688,342.4589 L125.4688,345.1777 Q124.8438,344.5995 124.25,344.3339 Q123.6563,344.0527 123.0313,344.0527 Q121.6875,344.0527 121,345.1308 Q120.3125,346.1933 120.3125,348.287 Q120.3125,350.3808 121,351.4589 Q121.6875,352.5214 123.0313,352.5214 Q123.6563,352.5214 124.25,352.2558 Q124.8438,351.9745 125.4688,351.3964 L125.4688,354.1152 Z " fill="#000000"/><text fill="#D9B8FF" font-family="Helvetica" font-size="17" lengthAdjust="spacing" textLength="176" x="141.5" y="354.3598">digitalocean_ssh_key</text></g><!--class keypair--><g id="elem_keypair"><rect codeLine="29" fill="#3D176E" height="39.7891" id="keypair" rx="2.5" ry="2.5" style="stroke:#000D19;stroke-width:0.5;" width="104" x="264.5" y="167.79"/><ellipse cx="279.5" cy="187.6845" fill="#ADD1B2" rx="11" ry="11" style="stroke:#181818;stroke-width:1.0;"/><path d="M282.4688,193.3252 Q281.8906,193.622 281.25,193.7627 Q280.6094,193.9189 279.9063,193.9189 Q277.4063,193.9189 276.0781,192.2783 Q274.7656,190.622 274.7656,187.497 Q274.7656,184.372 276.0781,182.7158 Q277.4063,181.0595 279.9063,181.0595 Q280.6094,181.0595 281.25,181.2158 Q281.9063,181.372 282.4688,181.6689 L282.4688,184.3877 Q281.8438,183.8095 281.25,183.5439 Q280.6563,183.2627 280.0313,183.2627 Q278.6875,183.2627 278,184.3408 Q277.3125,185.4033 277.3125,187.497 Q277.3125,189.5908 278,190.6689 Q278.6875,191.7314 280.0313,191.7314 Q280.6563,191.7314 281.25,191.4658 Q281.8438,191.1845 282.4688,190.6064 L282.4688,193.3252 Z " fill="#000000"/><text fill="#D9B8FF" font-family="Helvetica" font-size="17" lengthAdjust="spacing" textLength="62" x="298.5" y="193.5698">keypair</text></g><!--class resource--><g id="elem_resource"><rect codeLine="32" fill="#3D176E" height="39.7891" id="resource" rx="2.5" ry="2.5" style="stroke:#000D19;stroke-width:0.5;" width="113" x="160" y="7"/><ellipse cx="175" cy="26.8945" fill="#ADD1B2" rx="11" ry="11" style="stroke:#181818;stroke-width:1.0;"/><path d="M177.9688,32.5352 Q177.3906,32.832 176.75,32.9727 Q176.1094,33.1289 175.4063,33.1289 Q172.9063,33.1289 171.5781,31.4883 Q170.2656,29.832 170.2656,26.707 Q170.2656,23.582 171.5781,21.9258 Q172.9063,20.2695 175.4063,20.2695 Q176.1094,20.2695 176.75,20.4258 Q177.4063,20.582 177.9688,20.8789 L177.9688,23.5977 Q177.3438,23.0195 176.75,22.7539 Q176.1563,22.4727 175.5313,22.4727 Q174.1875,22.4727 173.5,23.5508 Q172.8125,24.6133 172.8125,26.707 Q172.8125,28.8008 173.5,29.8789 Q174.1875,30.9414 175.5313,30.9414 Q176.1563,30.9414 176.75,30.6758 Q177.3438,30.3945 177.9688,29.8164 L177.9688,32.5352 Z " fill="#000000"/><text fill="#D9B8FF" font-family="Helvetica" font-size="17" lengthAdjust="spacing" textLength="71" x="194" y="32.7798">resource</text></g><!--reverse link resource to digitalocean_resource--><g id="link_resource_digitalocean_resource"><path codeLine="35" d="M195.225,62.3667 C176.385,92.8867 149.23,136.9 130.36,167.46 " fill="none" id="resource-backto-digitalocean_resource" style="stroke:#FFAF37;stroke-width:2.0;"/><polygon fill="none" points="204.68,47.05,190.1194,59.2151,200.3306,65.5184,204.68,47.05" style="stroke:#FFAF37;stroke-width:2.0;"/></g><!--reverse link digitalocean_resource to digitalocean_ssh_key--><g id="link_digitalocean_resource_digitalocean_ssh_key"><path codeLine="36" d="M139.775,223.1567 C158.615,253.6767 185.77,297.69 204.64,328.25 " fill="none" id="digitalocean_resource-backto-digitalocean_ssh_key" style="stroke:#FFAF37;stroke-width:2.0;"/><polygon fill="none" points="130.32,207.84,134.6694,226.3084,144.8806,220.0051,130.32,207.84" style="stroke:#FFAF37;stroke-width:2.0;"/></g><!--reverse link keypair to digitalocean_ssh_key--><g id="link_keypair_digitalocean_ssh_key"><path codeLine="37" d="M294.848,223.0714 C275.628,253.5914 247.85,297.69 228.61,328.25 " fill="none" id="keypair-backto-digitalocean_ssh_key" style="stroke:#FFAF37;stroke-width:2.0;"/><polygon fill="none" points="304.44,207.84,289.7709,219.874,299.9252,226.2687,304.44,207.84" style="stroke:#FFAF37;stroke-width:2.0;"/></g><!--reverse link resource to keypair--><g id="link_resource_keypair"><path codeLine="38" d="M238.152,62.2814 C257.372,92.8014 285.15,136.9 304.39,167.46 " fill="none" id="resource-backto-keypair" style="stroke:#FFAF37;stroke-width:2.0;"/><polygon fill="none" points="228.56,47.05,233.0748,65.4787,243.2291,59.084,228.56,47.05" style="stroke:#FFAF37;stroke-width:2.0;"/></g><!--SRC=[XP1FRy8m3CNl-HIHE2FHeGqgxS8gJTi5JMDtP1A7HcsJoWb3xCzt7uo2GbhAqNu_-pqxrn8vLhNVyGgh5P9Zhj2c1eAApuZiDhEb9JvG2jHu4elFrlYRm1mgv2zOVgBN0cBY8zUYCEWSlmka9n35ckp6oEDwJs3SNaBZ0oehmRcPzwHN6uz169ckfah5PBnqC9R9v05Rc2M9r22ZqKWcQOpSjEgz-qmiz1Vo97pQt7finMnP_5EzAGz44B9rw4c_cl4DfDHcpU-3tlin4ncaY_uY1sct1rf1wK8Rvv7G-bsDMUigJATIJJhXrsim4uVNSQdNsaDf1O9P4Zgx8O7ycx7VBi2vV5dWBjJtPGsQmjRbcdFr-3CS3hiDMNUCZeac0JlPzY3HccQ2_G40]--></g></svg>

<svg xmlns="http://www.w3.org/2000/svg" width="375" height="374" viewBox="0 0 375 374"><rect width="223" height="39.789" x="7" y="167.79" fill="#3D176E" rx="2.5" ry="2.5" style="stroke:#000d19;stroke-width:.5"/><circle cx="22" cy="187.685" r="11" fill="#ADD1B2" style="stroke:#181818;stroke-width:1"/><path d="M24.969 193.325q-.578.297-1.219.438-.64.156-1.344.156-2.5 0-3.828-1.64-1.312-1.657-1.312-4.782t1.312-4.781q1.328-1.656 3.828-1.656.703 0 1.344.156.656.156 1.219.453v2.719q-.625-.578-1.219-.844-.594-.281-1.219-.281-1.343 0-2.031 1.078-.687 1.062-.687 3.156t.687 3.172q.688 1.062 2.031 1.062.625 0 1.219-.265.594-.281 1.219-.86z"/><text x="41" y="193.57" fill="#D9B8FF" font-family="Helvetica" font-size="17" textLength="181">digitalocean_resource</text><rect width="218" height="39.789" x="107.5" y="328.58" fill="#3D176E" rx="2.5" ry="2.5" style="stroke:#000d19;stroke-width:.5"/><circle cx="122.5" cy="348.474" r="11" fill="#ADD1B2" style="stroke:#181818;stroke-width:1"/><path d="M125.469 354.115q-.578.297-1.219.438-.64.156-1.344.156-2.5 0-3.828-1.64-1.312-1.657-1.312-4.782t1.312-4.781q1.328-1.656 3.828-1.656.703 0 1.344.156.656.156 1.219.453v2.719q-.625-.579-1.219-.844-.594-.281-1.219-.281-1.344 0-2.031 1.078-.687 1.062-.687 3.156t.687 3.172q.688 1.062 2.031 1.062.625 0 1.219-.265.594-.281 1.219-.86z"/><text x="141.5" y="354.36" fill="#D9B8FF" font-family="Helvetica" font-size="17" textLength="176">digitalocean_ssh_key</text><rect width="104" height="39.789" x="264.5" y="167.79" fill="#3D176E" rx="2.5" ry="2.5" style="stroke:#000d19;stroke-width:.5"/><circle cx="279.5" cy="187.685" r="11" fill="#ADD1B2" style="stroke:#181818;stroke-width:1"/><path d="M282.469 193.325q-.578.297-1.219.438-.64.156-1.344.156-2.5 0-3.828-1.64-1.312-1.657-1.312-4.782t1.312-4.781q1.328-1.656 3.828-1.656.703 0 1.344.156.656.156 1.219.453v2.719q-.625-.578-1.219-.844-.594-.281-1.219-.281-1.344 0-2.031 1.078-.687 1.062-.687 3.156t.687 3.172q.688 1.062 2.031 1.062.625 0 1.219-.265.594-.281 1.219-.86z"/><text x="298.5" y="193.57" fill="#D9B8FF" font-family="Helvetica" font-size="17" textLength="62">keypair</text><rect width="113" height="39.789" x="160" y="7" fill="#3D176E" rx="2.5" ry="2.5" style="stroke:#000d19;stroke-width:.5"/><circle cx="175" cy="26.895" r="11" fill="#ADD1B2" style="stroke:#181818;stroke-width:1"/><path d="M177.969 32.535q-.578.297-1.219.438-.64.156-1.344.156-2.5 0-3.828-1.64-1.312-1.657-1.312-4.782t1.312-4.781q1.328-1.656 3.828-1.656.703 0 1.344.156.656.156 1.219.453v2.719q-.625-.578-1.219-.844-.594-.281-1.219-.281-1.344 0-2.031 1.078-.687 1.062-.687 3.156t.687 3.172q.688 1.062 2.031 1.062.625 0 1.219-.265.594-.281 1.219-.86z"/><text x="194" y="32.78" fill="#D9B8FF" font-family="Helvetica" font-size="17" textLength="71">resource</text><path fill="none" d="M195.225 62.367c-18.84 30.52-45.995 74.533-64.865 105.093m74.32-120.41-14.56 12.165 10.21 6.303zm-64.905 176.107c18.84 30.52 45.995 74.533 64.865 105.093m-74.32-120.41 4.35 18.468 10.21-6.303z" style="stroke:#ffaf37;stroke-width:2"/><g fill="none"><path d="M294.848 223.071c-19.22 30.52-46.998 74.619-66.238 105.179" style="stroke:#ffaf37;stroke-width:2"/><path d="m304.44 207.84-14.67 12.034 10.155 6.395z" style="stroke:#ffaf37;stroke-width:2"/></g><g fill="none"><path d="M238.152 62.281c19.22 30.52 46.998 74.619 66.238 105.179" style="stroke:#ffaf37;stroke-width:2"/><path d="m228.56 47.05 4.515 18.429 10.154-6.395z" style="stroke:#ffaf37;stroke-width:2"/></g></svg>
